X:1
T:MAURICE MANLEY (polka)
C:unknown
L:1/8
Q:240
M:2/4
K:G
 "Am"EA AB | cd e2 | "G"G3/2F/ GA | GE ED | "Am"EA AB | cd ef | "Em"ge dB | "Am"A2 A2 | \
 EA AB | cd e2 | "G"G3/2F/ GA | GE ED | "Am"EA AB | cd e3/2f/ | "Em"ge dB | "Am"A2 A2 | \
 "Am"a2 a3/2b/ | ag ef | "G"g2 g3/2a/ | ge ed | "Am"ea ab | ag ef | "Em"ge dB | "Am"A2 A2 | \
 a2 a3/2b/ | ag ef | g2 g3/2a/ | ge ed | "Am"ea ab | ag ef | "Em"ge dB | "Am"A2 A2 | \
W:Created with TablEdit http://www.tabledit.com/
